X:1
T:Ach Gott von Himmel, 87.87.887
T:Enchiridion (Erfurt, German
T:Ach Gott von Himmel, 87.87.887
T:Public Domain
C:Enchiridion (Erfurt, German
Z:Public Domain
%%score ( 1 2 ) ( 3 4 )
L:1/8
M:4/4
K:F
V:1 treble 
V:2 treble 
V:3 bass 
V:4 bass 
V:1
 [DA]4 [DB]2 [DA]2 | [_EG]2 [Fd]2 [Fd]2 [GB]2 | [^FA]6 [=FA]2 | [GB]2 [FA]2 [_EG]2 [Gc]2 | %4
 ([GB]2 [^FA]2) G4 | [DA]4 [DB]2 [DA]2 | [_EG]2 [Fd]2 [Fd]2 [GB]2 | [^FA]6 [=FA]2 | %8
 [GB]2 [FA]2 [_EG]2 [Gc]2 | ([GB]2 [^FA]2) G4 | z2 [DG]2 [FA]2 [DF]2 | [CE]2 [B,D]2 [DF]2 [EG]2 | %12
 [EA]6 [DF]2 | [EG]2 [FB]2 [FA]2 [DB]2 | [_EG]2 [D^F]2 [DG]4 | z2 [DG]2 [Fd]2 [DB]2 | %16
 [Fc]2 [Fd]2 [_Ec]2 [DB]2 | (D2 ^C=B, C4) |] %18
V:2
 x8 | x8 | x8 | x8 | x4 G4 | x8 | x8 | x8 | x8 | x4 G4 | x8 | x8 | x8 | x8 | x8 | x8 | x8 | A8 |] %18
V:3
 [D,^F,]4 G,2 [=F,A,]2 | [_E,B,]2 [B,,B,]2 [B,D]2 [G,D]2 | [D,D]6 [D,D]2 | %3
 [G,D]2 [D,D]2 [_E,B,]2 [C,_E]2 | [D,D]4 [G,,=B,]4 | [D,^F,]4 G,2 [=F,A,]2 | %6
 [_E,B,]2 [B,,B,]2 [B,D]2 [G,D]2 | [D,D]6 [D,D]2 | [G,D]2 [D,D]2 [E,B,]2 [C,E]2 | %9
 [D,D]4 [G,,=B,]4 | z2 [G,B,]2 [F,C]2 [B,,B,]2 | [C,G,]2 [G,,G,]2 [D,A,]2 [B,,D]2 | %12
 [A,,^C]6 [D,A,]2 | [C,C]2 [B,,D]2 [F,C]2 [G,B,]2 | [C,C]2 [D,A,]2 [G,,=B,]4 | %15
 z2 [G,B,]2 [D,B,]2 [G,B,]2 | [F,A,]2 [B,,B,]2 C,2 G,,2 | (F,2 E,D, E,4) |] %18
V:4
 x4 G,2 x2 | x8 | x8 | x8 | x8 | x4 G,2 x2 | x8 | x8 | x8 | x8 | x8 | x8 | x8 | x8 | x8 | x8 | %16
 x4 G,4 | A,,8 |] %18

